X:1
T:Aus tiefer Noth
T:Aus tiefer Noth
T:Hermann Schein
C:Hermann Schein
%%score [ 1 2 3 4 ]
L:1/8
Q:1/4=120
M:2/2
K:C
V:1 treble nm="Soprano"
V:2 treble nm="Alto"
V:3 treble-8 nm="Tenor"
V:4 bass nm="Bass"
V:1
 B4 E2 B2 | c2 B2 G2 A2 | B4 z2 B2 | c2 d2 c2 A2 | G2 F2 E4 | B4 E2 B2 | c2 B2 G2 A2 | B4 z2 B2 | %8
w: 1.Aus tie- fer|Noth schrei' ich zu|Dir, Herr|Gott, er- hör' mein|Ru- * fen!|Dein gnä- dig's|Ohr neig' her zu|mir, und|
w: 2.Da- rum auf|Gott will hoff- en|ich, Auf|mein Ver- dienst nicht|bau- * en.|Auf Ihn mein|Herz soll las- sen|sich und|
 c2 d2 c2 A2 | G2 F2 E4 | z2 A2 G2 c2 | B2 A d2 c B2 | A4 z2 c2 | B2 c2 d2 G2 | B2 A2 G4 | %15
w: mei- ner Bitt' sie|öff- * ne.|Denn so Du|willst das se- * hen|an, was|Sünd und Un- recht|ist ge- tan|
w: sei- ner Gna- de|trau- * en.|Die mir zu-|sagt sein wer- * tes|Wort, das|ist mein Trost und|treu- er Hort,|
 z2 G2 c2 B2 | A2 E2 G2 F2 | E8 |] %18
w: wer kann, Herr,|vor Dir blei- *|ben!|
w: des will ich|all- zeit har- *|ren.|
V:2
 E4 E2 ^G2 | A2 G2 E3 ^F | ^G4 z2 E2 | E2 F2 G2 F2 | E2 D2 ^C4 | E4 E2 ^G2 | A2 G2 E3 ^F | %7
w: 1.Aus tie- fer|Noth schrei' ich zu|Dir, Herr|Gott, er- hör' mein|Ru- * fen!|Dein gnä- dig's|Ohr neig' her zu|
 ^G4 z2 E2 | E2 F2 G2 F2 | E2 D2 ^C4 | z2 E2 E2 G2 | G2 F2 E2 E2 | E4 z2 E2 | G2 G2 F2 E2 | %14
w: mir, und|mei- ner Bitt' sie|öff- * ne.|Denn so Du|willst das se- hen|an, was|Sünd und Un- recht|
 D2 D2 D4 | z2 D2 A2 G2 | F2 G2 E2 D2 | B,8 |] %18
w: ist ge- tan|wer kann, Herr,|vor Dir blei- *|ben!|
V:3
 ^G4 A2 d2 | e2 d2 c2 c2 | e4 z2 ^G2 | A2 A2 c2 c2 | c2 A2 A4 | ^G4 A2 d2 | e2 d2 c2 c2 | %7
w: 2.Da- rum auf|Gott will hoff- en|ich, Auf|mein Ver- dienst nicht|bau- * en.|Auf Ihn mein|Herz soll las- sen|
 e4 z2 ^G2 | A2 A2 c2 c2 | c2 A2 A4 | z2 c2 B2 e2 | d3 A ^G A2 G | A4 z2 A2 | d2 e2 A2 c2 | %14
w: sich und|sei- ner Gna- de|trau- * en.|Die mir zu-|sagt sein wer- * tes|Wort, das|ist mein Trost und|
 ^F G2 F G4 | z2 B2 e2 e2 | c2 c2 c2 A2 | ^G8 |] %18
w: treu- * er Hort,|des will ich|all- zeit har- *|ren.|
V:4
 E,4 C,2 B,,2 | A,,2 B,,2 C,2 A,,2 | E,4 z2 E,2 | A,2 D,2 E,2 F,2 | C,2 D,2 A,,4 | E,4 C,2 B,,2 | %6
w: 1.Aus tie- fer|Noth schrei' ich zu|Dir, Herr|Gott, er- hör' mein|Ru- * fen!|Dein gnä- dig's|
 A,,2 B,,2 C,2 A,,2 | E,4 z2 E,2 | A,2 D,2 E,2 F,2 | C,2 D,2 A,,4 | z2 A,,2 E,2 C,2 | %11
w: Ohr- neig' her zu|mir, und|mei- ner Bitt' sie|öff- * ne.|Denn so Du|
 G,2 D,2 E,2 E,2 | A,,4 z2 A,2 | G,2 E,2 D,2 C,2 | D,2 D,2 G,,4 | z2 G,2 A,2 E,2 | %16
w: willst das se- hen|an, was|Sünd und Un- recht|ist ge- tan|wer kann, Herr,|
 F,2 C,2 C,2 D,2 | E,8 |] %18
w: vor Dir blei- *|ben!|

